X:1
T:An Evening at the Village
T:An Evening at the Village
T:Bartók Béla
C:Bartók Béla
%%score { ( 1 3 ) | ( 2 4 ) }
L:1/8
M:4/4
K:C
V:1 treble nm="Piano" snm="Pno."
V:3 treble 
V:2 treble 
V:4 treble 
V:1
!mf! (!>!e4- edBd | ed)d!>!B- B4 | (!>!e4- edBd | ed)B!>!A- A4 | (B4- BABe | dB)GE- E4 | %6
 (B4- BABd |[M:3/4] B)A G2 E2- | E6 ||[M:4/4]!p! .d.e.e.e .d.e.b.a | !>!.g !tenuto!d3 !>!e4 | %11
 .d.e.e.e .d.e.b.a | !>!.g !tenuto!d3 !>!e4 | .g.a.a.a .g.a.e'.d' | .b !tenuto!g3 !tenuto!a3 .b | %15
 .g !tenuto!d3 !tenuto!e3 .a | .g !tenuto!d3 !tenuto!e3 .a | .g !tenuto!d3 !^!e4- | e8 | z8 || %20
[M:3/4] (!>!e2- ed!mf!Bd | ed)!tenuto!d!>!B- !fermata!B2 | (!>!e2- edBd | %23
 ed)!tenuto!B!>!A- !fermata!A2 | (!>!B2- BABe | dB)!tenuto!G!>!E- !fermata!E2 | (B2- BABd | %27
 B)!tenuto!A !tenuto!G2 !>!E2- | E6 |[M:4/4]!p! .d.e .e(e/.g/) (d/e/.b) .b.a | %30
 (3(!>!g/a/g/ d3) !>!e4 | .d.e .e(e/.g/) (d/e/).b .b.a | (3(!>!g/a/g/ d3) !>!e4 | %33
 .g.a .a(a/.b/) (g/a/.e') .e'.d' | (3(!>!b/d'/b/ g3) !tenuto!a3 b | g !tenuto!d3 !tenuto!e3 a | %36
!<(! g !tenuto!d3 !tenuto!e3 a!<)! | g !tenuto!d3!mp! !>!e4- | %38
 e3!8va(! (a'/g'/ e'3) (a'/g'/!8va)! | %39
!8va(! e')"_dim."(a'/g'/ e')(a'/g'/ e')(a'/g'/!pp! e')(a'/g'/)!8va)! | z8 ||!f! (e4- edBd | %42
[M:3/4] ed) d!>!B- B2- |[M:4/4]!mf!!mf! B8 | (e4- edBd |[M:3/4] ed) B!>!A- A2- |[M:4/4] A8 | %47
 (B4- BABe |[M:3/4] dB) G!>!E- E2- |[M:4/4]!p!!p! E8 | (B4- BABd |[M:2/4] B)!tenuto!A !tenuto!G2 | %52
[M:3/4] E6- | [G,B,E]6 | [gbd'e']6 |] %55
V:2
 z4 [EG]4- | [EG]2 [D^F]6 | z4 [CEG]4- | [CEG]2 [CD^F]6 | z4 [B,D^F]4- | [B,DF]2 [CE]6 | %6
[K:bass] z4 [G,D-]4 |[M:3/4] [^F,B,D]2 [E,G,B,D]4- | [E,G,B,D]6 || %9
[M:4/4]!pp! z2 .[E,G,B,]2 z2 .[D,G,B,]2 | z2 .[E,G,B,]2 z2 .[D,G,B,]2 | %11
 z2 .[E,G,B,]2 z2 .[D,G,B,]2 | z2 .[E,G,B,]2 z2 .[D,G,B,]2 | z2 .[G,B,D]2 z2 .[G,A,CE]2 | %14
 z2 .[G,B,D]2 z2 .[G,A,CE]2 | z2 .[G,B,D]2 z2 .[D,E,G,B,]2 | z2 .[E,G,B,D]2 z2 .[D,E,G,B,]2 | %17
 z2 .[E,G,B,D]2 z2 [^C,E,^G,]2 | z2 [^C,E,^G,]2 z2 [C,E,G,]2 | z8 ||[M:3/4] z2 [C,E,G,]4- | %21
 [C,E,G,]4 !fermata![C,E,G,]2 | z2 [C,E,G,]4- | [C,E,G,]4 !fermata![C,_E,G,]2 | %24
 z2 !fermata![G,,D,]4- | [G,,D,]2 [G,,C,E,]4 | z2 [^F,B,D]4- | [F,B,D]2 [E,G,B,D]4- | [E,G,B,D]6 | %29
[M:4/4] .[E,G,B,]2 .[D,G,B,]2 .[E,G,B,]2 .[D,G,B,]2 | .[E,G,B,]2 .[D,G,B,]2 .[E,G,B,]2 .[D,G,B,]2 | %31
 .[E,G,B,]2 .[D,G,B,]2 .[E,G,B,]2 .[D,G,B,]2 | .[E,G,B,]2 .[D,G,B,]2 .[E,G,B,]2 .[D,G,B,]2 | %33
 .[G,B,D]2 .[G,A,CE]2 .[G,B,D]2 .[G,A,CE]2 | .[G,B,D]2 .[G,A,CE]2 .[G,B,D]2 .[G,A,CE]2 | %35
 .[G,B,D]2 .[E,G,B,D]2 .[D,E,G,B,]2 .[E,G,B,D]2 | .[G,B,D]2 .[E,G,B,D]2 .[D,E,G,B,]2 .[E,G,B,D]2 | %37
 .[D,E,G,B,]2 .[E,G,B,D]2 .[^C,E,^G,]2 .[E,G,^C]2 | .[^C,E,^G,]2 .[E,G,^C]2 .[C,E,G,]2 .[E,G,C]2 | %39
 .[^C,E,^G,]2 .[E,G,^C]2 .[C,E,G,]2 .[E,G,C]2 | z8 || (E4- EDB,D |[M:3/4] ED) D!>!B,- B,2- | %43
[M:4/4] B,8 | (E4- EDB,D |[M:3/4] ED) B,!>!A,- A,2- |[M:4/4] A,8 | (B,4- B,A,B,E | %48
[M:3/4] DB,) G,!>!E,- E,2- |[M:4/4] E,8 | (B,4- B,A,B,D |[M:2/4] B,)!tenuto!A, !tenuto!G,2 | %52
[M:3/4] E,6- | [G,,B,,E,]6 |[K:treble] [EBd]6 |] %55
V:3
 x8 | x8 | x8 | x8 | x8 | x8 | x8 |[M:3/4] x6 | x6 ||[M:4/4] x8 | x8 | x8 | x8 | x8 | x8 | x8 | %16
 x8 | x8 | x8 | x8 ||[M:3/4] x6 | x6 | x6 | x6 | x6 | x6 | x6 | x6 | x6 |[M:4/4] x8 | x8 | x8 | %32
 x8 | x8 | x8 | x8 | x8 | x8 | x3!8va(! x5!8va)! |!8va(! x8!8va)! | x8 || x8 |[M:3/4] x6 | %43
[M:4/4] [DEG]2 [DEG]4 [DEG]2- | [DEG]2 [DEG]4 z2 |[M:3/4] x6 |[M:4/4] [B,EG]2 [B,EG]4 [B,EG]2- | %47
 [B,EG]2 [B,EG]4 z2 |[M:3/4] x6 |[M:4/4] [G,B,D]2 [G,B,D]4 [G,B,D]2- | [G,B,D]2 [G,B,D]4 z2 | %51
[M:2/4] x4 |[M:3/4] z2 z2!pp!!pp! [G,B,]2 | x6 | x6 |] %55
V:4
 x8 | x8 | x8 | x8 | x8 | x8 |[K:bass] x8 |[M:3/4] x6 | x6 ||[M:4/4] x8 | x8 | x8 | x8 | x8 | x8 | %15
 x8 | x8 | x8 | x8 | x8 ||[M:3/4] x6 | x6 | x6 | x6 | x6 | x6 | x6 | x6 | x6 |[M:4/4] x8 | x8 | %31
 x8 | x8 | x8 | x8 | x8 | x8 | x8 | x8 | x8 | x8 || x8 |[M:3/4] x6 | %43
[M:4/4] [D,E,G,]2 [D,E,G,]4 [D,E,G,]2- | [D,E,G,]2 [D,E,G,]4 z2 |[M:3/4] x6 | %46
[M:4/4] [B,,E,G,]2 [B,,E,G,]4 [B,,E,G,]2- | [B,,E,G,]2 [B,,E,G,]4 z2 |[M:3/4] x6 | %49
[M:4/4] [G,,B,,D,]2 [G,,B,,D,]4 [G,,B,,D,]2- | [G,,B,,D,]2 [G,,B,,D,]4 z2 |[M:2/4] x4 | %52
[M:3/4] z2 z2 [G,,B,,]2 | x6 |[K:treble] x6 |] %55

